svg/u1f3a6.svg

<svg viewBox="0 0 128 128" xmlns="http://www.w3.org/2000/svg">
  <path d="M116,4H12c-4.42,0-8,3.58-8,8v104c0,4.42,3.58,8,8,8h104c4.42,0,8-3.58,8-8V12 C124,7.58,120.42,4,116,4z" fill="#F77E00"/>
  <path d="M109.7,4H11.5C7.37,4.03,4.03,7.37,4,11.5v97.9c-0.01,4.14,3.34,7.49,7.48,7.5c0.01,0,0.01,0,0.02,0 h98.1c4.14,0.01,7.49-3.34,7.5-7.48c0-0.01,0-0.01,0-0.02V11.5c0.09-4.05-3.13-7.41-7.18-7.5C109.85,4,109.77,4,109.7,4z" fill="#FF9800"/>
  <path d="M39.7,12.9c0-2.3-1.6-3-10.8-2.7c-7.7,0.3-11.5,1.2-13.8,4 s-2.9,8.5-3,15.3c0,4.8,0,9.3,2.5,9.3c3.4,0,3.4-7.9,6.2-12.3C26.2,17.8,39.7,15.9,39.7,12.9z" opacity="0.75" fill="#FFBD52" enable-background="new "/>
  <path d="M99.1,61.5H51.9c-3.13,0.03-5.67,2.57-5.7,5.7v9.4l-21-14.7c-1.88-0.94-4.16-0.18-5.1,1.7 c-0.26,0.53-0.4,1.11-0.4,1.7V103c0.03,2.12,1.78,3.81,3.9,3.78c0.55-0.01,1.1-0.14,1.6-0.38l21-14.7v9.4c0,3.15,2.55,5.7,5.7,5.7 h47.2c3.13-0.03,5.67-2.57,5.7-5.7v-34C104.76,63.99,102.21,61.49,99.1,61.5z" fill="#FAFAFA"/>
  <circle cx="58.8" cy="41.7" r="20.5" fill="#FAFAFA"/>
  <circle cx="93.9" cy="47.9" r="14.4" fill="#FAFAFA"/>
</svg>

<svg viewBox="0 0 128 128" xmlns="http://www.w3.org/2000/svg">
  <defs/>
  <path d="M116,4 L12,4 C7.58,4 4,7.58 4,12 L4,116 C4,120.42 7.58,124 12,124 L116,124 C120.42,124 124,120.42 124,116 L124,12 C124,7.58 120.42,4 116,4 Z" fill="#F77E00"/>
  <path d="M109.7,4 L11.5,4 C7.37,4.03 4.03,7.37 4,11.5 L4,109.4 C3.99,113.54 7.34,116.89 11.48,116.9 C11.49,116.9 11.49,116.9 11.5,116.9 L109.6,116.9 C113.74,116.91 117.09,113.56 117.1,109.42 C117.1,109.41 117.1,109.41 117.1,109.4 L117.1,11.5 C117.19,7.45 113.97,4.09 109.92,4 C109.85,4 109.77,4 109.7,4 Z" fill="#FF9800"/>
  <path d="M39.7,12.9 C39.7,10.6 38.1,9.9 28.9,10.2 C21.2,10.5 17.4,11.4 15.1,14.2 C12.8,17 12.2,22.7 12.1,29.5 C12.1,34.3 12.1,38.8 14.6,38.8 C18,38.8 18,30.9 20.8,26.5 C26.2,17.8 39.7,15.9 39.7,12.9 Z" fill="#FFBD52" opacity="0.75"/>
  <path d="M99.1,61.5 L51.9,61.5 C48.77,61.53 46.23,64.07 46.2,67.2 L46.2,76.6 L25.2,61.9 C23.32,60.96 21.04,61.72 20.1,63.6 C19.84,64.13 19.7,64.71 19.7,65.3 L19.7,103 C19.73,105.12 21.48,106.81 23.6,106.78 C24.15,106.77 24.7,106.64 25.2,106.4 L46.2,91.7 L46.2,101.1 C46.2,104.25 48.75,106.8 51.9,106.8 L99.1,106.8 C102.23,106.77 104.77,104.23 104.8,101.1 L104.8,67.1 C104.76,63.99 102.21,61.49 99.1,61.5 Z" fill="#FAFAFA"/>
  <path d="M79.3,41.7 A20.5 20.5 0 1 1 38.3,41.7 A20.5 20.5 0 1 1 79.3,41.7 Z" fill="#FAFAFA"/>
  <path d="M108.3,47.9 A14.4 14.4 0 1 1 79.5,47.9 A14.4 14.4 0 1 1 108.3,47.9 Z" fill="#FAFAFA"/>
</svg>
